src/icons/svg/terminal.svg

<?xml version="1.0" standalone="no"?><!DOCTYPE svg PUBLIC "-//W3C//DTD SVG 1.1//EN" "http://www.w3.org/Graphics/SVG/1.1/DTD/svg11.dtd"><svg t="1645509388374" class="icon" viewBox="0 0 1024 1024" version="1.1" xmlns="http://www.w3.org/2000/svg" p-id="3850" xmlns:xlink="http://www.w3.org/1999/xlink" width="200" height="200"><defs><style type="text/css"></style></defs><path d="M0 64l0 896 1024 0 0-896-1024 0zM960 896l-896 0 0-768 896 0 0 768zM896 192l-768 0 0 640 768 0 0-640zM448 512l-64 0 0 64-64 0 0 64-64 0 0-64 64 0 0-64 64 0 0-64-64 0 0-64-64 0 0-64 64 0 0 64 64 0 0 64 64 0 0 64zM704 640l-192 0 0-64 192 0 0 64z" p-id="3851"></path></svg>

<svg class="icon" viewBox="0 0 1024 1024" xmlns="http://www.w3.org/2000/svg" width="200" height="200"><defs><style/></defs><path d="M0 64v896h1024V64H0zm960 832H64V128h896v768zm-64-704H128v640h768V192zM448 512h-64v64h-64v64h-64v-64h64v-64h64v-64h-64v-64h-64v-64h64v64h64v64h64v64zm256 128H512v-64h192v64z"/></svg>
